svg/fluentui-system-icons/ic_fluent_document_pdf_24_regular.svg

<svg width="24" height="24" viewBox="0 0 24 24" fill="none" xmlns="http://www.w3.org/2000/svg">
<path d="M7.50269 13.0021C7.22654 13.0021 7.00269 13.2259 7.00269 13.5021V16.5021C7.00269 16.7782 7.22654 17.0021 7.50269 17.0021C7.77883 17.0021 8.00269 16.7782 8.00269 16.5021V16.0025H8.50004C9.32858 16.0025 10.0002 15.3308 10.0002 14.5023C10.0002 13.6737 9.32858 13.0021 8.50004 13.0021H7.50269ZM8.50004 15.0025H8.00269V14.0021H8.50004C8.77629 14.0021 9.00024 14.226 9.00024 14.5023C9.00024 14.7785 8.7763 15.0025 8.50004 15.0025ZM14.9977 13.5014C14.998 13.2255 15.2218 13.0021 15.4977 13.0021H17.0027C17.2788 13.0021 17.5027 13.2259 17.5027 13.5021C17.5027 13.7782 17.2788 14.0021 17.0027 14.0021H15.997L15.9958 15.0038H17.0027C17.2788 15.0038 17.5027 15.2277 17.5027 15.5038C17.5027 15.7799 17.2788 16.0038 17.0027 16.0038H15.9964L15.9977 16.5008C15.9984 16.7769 15.7751 17.0014 15.4989 17.0021C15.2228 17.0028 14.9984 16.7795 14.9977 16.5033L14.9951 15.5051L14.9951 15.5032L14.9977 13.5014ZM11.5 13.0021C11.2239 13.0021 11 13.2259 11 13.5021V16.5021C11 16.7782 11.2239 17.0021 11.5 17.0021H11.9976C13.1021 17.0021 13.9975 16.1067 13.9976 15.0021C13.9976 13.8975 13.1021 13.0021 11.9976 13.0021H11.5ZM12 16.0021V14.0021C12.5512 14.0034 12.9976 14.4506 12.9976 15.0021C12.9975 15.5535 12.5512 16.0008 12 16.0021ZM20 20V18.8358C20.5912 18.5549 21 17.9523 21 17.2542V12.75C21 12.0519 20.5912 11.4493 20 11.1684V9.828C20 9.298 19.789 8.789 19.414 8.414L13.585 2.586C13.57 2.57105 13.5531 2.55808 13.5363 2.5452C13.5238 2.53567 13.5115 2.5262 13.5 2.516C13.429 2.452 13.359 2.389 13.281 2.336C13.2557 2.31894 13.2281 2.30548 13.2005 2.29207C13.1845 2.28426 13.1685 2.27647 13.153 2.268C13.1363 2.25859 13.1197 2.24897 13.103 2.23933C13.0488 2.20797 12.9944 2.17648 12.937 2.152C12.74 2.07 12.528 2.029 12.313 2.014C12.2933 2.01274 12.2738 2.01008 12.2542 2.00741C12.2271 2.00371 12.1999 2 12.172 2H6C4.896 2 4 2.896 4 4V11.1684C3.40876 11.4493 3 12.0519 3 12.75V17.2542C3 17.9523 3.40876 18.5549 4 18.8358V20C4 21.104 4.896 22 6 22H18C19.104 22 20 21.104 20 20ZM18 20.5H6C5.724 20.5 5.5 20.275 5.5 20V19.0042H18.5V20C18.5 20.275 18.276 20.5 18 20.5ZM18.5 10V11H5.5V4C5.5 3.725 5.724 3.5 6 3.5H12V8C12 9.104 12.896 10 14 10H18.5ZM17.378 8.5H14C13.724 8.5 13.5 8.275 13.5 8V4.621L17.378 8.5ZM4.75 12.5H19.25C19.3881 12.5 19.5 12.6119 19.5 12.75V17.2542C19.5 17.3923 19.3881 17.5042 19.25 17.5042H4.75C4.61193 17.5042 4.5 17.3923 4.5 17.2542V12.75C4.5 12.6119 4.61193 12.5 4.75 12.5Z" fill="#212121"/>
</svg>

<svg xmlns="http://www.w3.org/2000/svg" width="24" height="24"><path d="M7.503 13.002a.5.5 0 0 0-.5.5v3a.5.5 0 0 0 1 0v-.5H8.5a1.5 1.5 0 0 0 0-3h-.997Zm.997 2h-.497v-1H8.5a.5.5 0 1 1 0 1Zm6.498-1.5a.5.5 0 0 1 .5-.5h1.505a.5.5 0 1 1 0 1h-1.006l-.001 1.002h1.007a.5.5 0 0 1 0 1h-1.007l.002.497a.5.5 0 0 1-1 .002l-.003-.998v-.002l.003-2.002Zm-3.498-.5a.5.5 0 0 0-.5.5v3a.5.5 0 0 0 .5.5h.498a2 2 0 0 0 0-4H11.5Zm.5 3v-2a1 1 0 0 1 0 2ZM20 20v-1.164c.591-.281 1-.884 1-1.582V12.75c0-.698-.409-1.3-1-1.582v-1.34a2 2 0 0 0-.586-1.414l-5.829-5.828a.491.491 0 0 0-.049-.04.63.63 0 0 1-.036-.03 2.072 2.072 0 0 0-.219-.18.652.652 0 0 0-.08-.044l-.048-.024-.05-.029c-.054-.031-.109-.063-.166-.087a1.977 1.977 0 0 0-.624-.138.56.56 0 0 1-.059-.007.605.605 0 0 0-.082-.007H6a2 2 0 0 0-2 2v7.168c-.591.281-1 .884-1 1.582v4.504c0 .698.409 1.3 1 1.582V20a2 2 0 0 0 2 2h12a2 2 0 0 0 2-2Zm-2 .5H6a.5.5 0 0 1-.5-.5v-.996h13V20a.5.5 0 0 1-.5.5Zm.5-10.5v1h-13V4a.5.5 0 0 1 .5-.5h6V8a2 2 0 0 0 2 2h4.5Zm-1.122-1.5H14a.5.5 0 0 1-.5-.5V4.621L17.378 8.5Zm-12.628 4h14.5a.25.25 0 0 1 .25.25v4.504a.25.25 0 0 1-.25.25H4.75a.25.25 0 0 1-.25-.25V12.75a.25.25 0 0 1 .25-.25Z"/></svg>
